packages/icons/svg/Fill/arrow-right-down.svg

<svg fill="none" height="24" viewBox="0 0 24 24" width="24" xmlns="http://www.w3.org/2000/svg"><path clip-rule="evenodd" d="m17 8.00001c-.553 0-1 .448-1 1v5.58599l-8.29301-8.29299c-.391-.391-1.023-.391-1.414 0s-.391 1.023 0 1.414l8.29301 8.29299h-5.58601c-.553 0-1 .448-1 1s.447 1 1 1h8.00001c.553 0 1-.448 1-1v-7.99999c0-.552-.447-1-1-1" fill="#6b7280" fill-rule="evenodd"/></svg>

<svg width="24" height="24" viewBox="0 0 24 24" fill="none" xmlns="http://www.w3.org/2000/svg">
<g id="Icon/Fill/arrow-right-down">
<path id="Mask" fill-rule="evenodd" clip-rule="evenodd" d="M17 8.00001C16.447 8.00001 16 8.44801 16 9.00001V14.586L7.70701 6.29301C7.31601 5.90201 6.68401 5.90201 6.29301 6.29301C5.90201 6.68401 5.90201 7.31601 6.29301 7.70701L14.586 16H9.00001C8.44701 16 8.00001 16.448 8.00001 17C8.00001 17.552 8.44701 18 9.00001 18H17C17.553 18 18 17.552 18 17V9.00001C18 8.44801 17.553 8.00001 17 8.00001Z" fill="#000000"/>
</g>
</svg>
